img/intro/4.svg

<svg width="440" height="413" viewBox="0 0 440 413" fill="none" xmlns="http://www.w3.org/2000/svg">
<g filter="url(#filter0_f_273_66321)">
<path d="M402.227 69.7341C416.884 70.5419 428.771 83.4679 428.887 98.7021L429.464 375.918C429.464 391.152 417.576 402.924 402.919 402.116L104.237 386.421C89.5797 385.613 77.6925 372.687 77.5771 357.453L77 80.2364C77 65.0022 88.8873 53.2304 103.544 54.0382L402.227 69.7341Z" fill="#26255F" fill-opacity="0.3"/>
</g>
<g filter="url(#filter1_d_273_66321)">
<path fill-rule="evenodd" clip-rule="evenodd" d="M45.6386 24.0384L45.6372 24.0391L45.6372 24.0391C44.8293 24.1545 44.0215 24.2699 43.329 24.5007L61.3331 15.3833C62.1403 15.1526 62.8324 15.0372 63.6395 14.9219L63.6408 14.9213C63.987 14.8635 64.3332 14.8347 64.6795 14.8058C65.0256 14.777 65.3717 14.7482 65.7178 14.6905L65.7179 14.6904H65.7181H67.6799H67.6799H68.6032L50.5992 23.8079H49.5605H49.5604H47.7141H47.7139C47.0221 23.8079 46.3304 23.9231 45.6386 24.0384ZM40.5586 25.3073L58.5626 16.1899C59.4859 15.8437 60.4092 15.6129 61.3325 15.382L43.3284 24.4995L43.3284 24.4995C42.4051 24.7303 41.4819 24.9611 40.5586 25.3073ZM50.5994 23.8079L68.6035 14.6904L366.67 30.3478L366.825 30.2725C385.715 33.7071 393.816 45.0916 393.945 59.3563L393.948 59.3545L394.525 336.571L394.461 336.603L394.527 336.683C394.995 356.178 372.021 371.306 354.133 371.306L351.65 354.56C352.258 353.743 369.324 331.31 376.473 322.286L375.945 68.8211C373.872 66.72 347.895 40.1801 347.782 39.5053L347.932 39.4328L50.5994 23.8079Z" fill="url(#paint0_linear_273_66321)"/>
</g>
<g style="mix-blend-mode:lighten" filter="url(#filter2_f_273_66321)">
<path d="M349.286 39.5036C363.944 40.3115 375.831 53.2375 375.946 68.4716L376.523 345.688C376.523 360.922 364.636 372.694 349.979 371.886L51.2965 356.19C36.6393 355.382 24.752 342.456 24.6366 327.222L24.0596 50.006C24.0596 34.7718 35.9469 22.9999 50.604 23.8078L349.286 39.5036Z" fill="#26255F"/>
</g>
<path d="M349.286 39.5036C363.944 40.3115 375.831 53.2375 375.946 68.4716L376.523 345.688C376.523 360.922 364.636 372.694 349.979 371.886L51.2965 356.19C36.6393 355.382 24.752 342.456 24.6366 327.222L24.0596 50.006C24.0596 34.7718 35.9469 22.9999 50.604 23.8078L349.286 39.5036Z" fill="url(#paint1_linear_273_66321)"/>
<defs>
<filter id="filter0_f_273_66321" x="67" y="43.999" width="372.464" height="368.157" filterUnits="userSpaceOnUse" color-interpolation-filters="sRGB">
<feFlood flood-opacity="0" result="BackgroundImageFix"/>
<feBlend mode="normal" in="SourceGraphic" in2="BackgroundImageFix" result="shape"/>
<feGaussianBlur stdDeviation="5" result="effect1_foregroundBlur_273_66321"/>
</filter>
<filter id="filter1_d_273_66321" x="31.5586" y="5.69043" width="373.976" height="376.616" filterUnits="userSpaceOnUse" color-interpolation-filters="sRGB">
<feFlood flood-opacity="0" result="BackgroundImageFix"/>
<feColorMatrix in="SourceAlpha" type="matrix" values="0 0 0 0 0 0 0 0 0 0 0 0 0 0 0 0 0 0 127 0" result="hardAlpha"/>
<feOffset dx="1" dy="1"/>
<feGaussianBlur stdDeviation="5"/>
<feComposite in2="hardAlpha" operator="out"/>
<feColorMatrix type="matrix" values="0 0 0 0 1 0 0 0 0 1 0 0 0 0 1 0 0 0 0.1 0"/>
<feBlend mode="normal" in2="BackgroundImageFix" result="effect1_dropShadow_273_66321"/>
<feBlend mode="normal" in="SourceGraphic" in2="effect1_dropShadow_273_66321" result="shape"/>
</filter>
<filter id="filter2_f_273_66321" x="0.977465" y="0.686449" width="398.628" height="394.321" filterUnits="userSpaceOnUse" color-interpolation-filters="sRGB">
<feFlood flood-opacity="0" result="BackgroundImageFix"/>
<feBlend mode="normal" in="SourceGraphic" in2="BackgroundImageFix" result="shape"/>
<feGaussianBlur stdDeviation="11.5411" result="effect1_foregroundBlur_273_66321"/>
</filter>
<linearGradient id="paint0_linear_273_66321" x1="-11.5" y1="-0.500985" x2="377.993" y2="371.006" gradientUnits="userSpaceOnUse">
<stop stop-color="#1BA4D8"/>
<stop offset="0.525701" stop-color="#1BA4D8"/>
<stop offset="0.96605" stop-color="#26255F"/>
</linearGradient>
<linearGradient id="paint1_linear_273_66321" x1="-43" y1="-12.001" x2="419" y2="471.499" gradientUnits="userSpaceOnUse">
<stop stop-color="#1BA4D8"/>
<stop offset="0.902828" stop-color="#2B2866"/>
</linearGradient>
</defs>
</svg>

<svg width="440" height="413" fill="none" xmlns="http://www.w3.org/2000/svg"><g filter="url(#a)"><path d="M402.227 69.734c14.657.808 26.544 13.734 26.66 28.968l.577 277.216c0 15.234-11.888 27.006-26.545 26.198l-298.682-15.695c-14.657-.808-26.544-13.734-26.66-28.968L77 80.236c0-15.234 11.887-27.006 26.544-26.198l298.683 15.696Z" fill="#26255F" fill-opacity=".3"/></g><g filter="url(#b)"><path fill-rule="evenodd" clip-rule="evenodd" d="m45.639 24.038-.002.001c-.808.115-1.615.23-2.308.462l18.004-9.118c.807-.23 1.5-.346 2.306-.461h.002c.346-.059.692-.087 1.039-.116.346-.029.692-.058 1.038-.115h2.885L50.6 23.807h-2.885c-.692 0-1.384.115-2.075.23Zm-5.08 1.27 18.004-9.118c.923-.346 1.846-.577 2.77-.808L43.328 24.5c-.923.23-1.846.461-2.77.807Zm10.04-1.5 18.005-9.118L366.67 30.348l.155-.075c18.89 3.434 26.991 14.819 27.12 29.083l.003-.002.577 277.217-.064.032.066.08c.468 19.495-22.506 34.623-40.394 34.623l-2.483-16.746c.608-.817 17.674-23.25 24.823-32.274l-.528-253.465c-2.073-2.101-28.05-28.64-28.163-29.316l.15-.072L50.599 23.808Z" fill="url(#c)"/></g><g style="mix-blend-mode:lighten" filter="url(#d)"><path d="M349.286 39.504c14.658.808 26.545 13.733 26.66 28.968l.577 277.216c0 15.234-11.887 27.006-26.544 26.198L51.296 356.19c-14.657-.808-26.544-13.734-26.66-28.968L24.06 50.006c0-15.234 11.887-27.006 26.544-26.198l298.682 15.696Z" fill="#26255F"/></g><path d="M349.286 39.504c14.658.808 26.545 13.733 26.66 28.968l.577 277.216c0 15.234-11.887 27.006-26.544 26.198L51.296 356.19c-14.657-.808-26.544-13.734-26.66-28.968L24.06 50.006c0-15.234 11.887-27.006 26.544-26.198l298.682 15.696Z" fill="url(#e)"/><defs><filter id="a" x="67" y="43.999" width="372.464" height="368.157" filterUnits="userSpaceOnUse" color-interpolation-filters="sRGB"><feFlood flood-opacity="0" result="BackgroundImageFix"/><feBlend in="SourceGraphic" in2="BackgroundImageFix" result="shape"/><feGaussianBlur stdDeviation="5" result="effect1_foregroundBlur_273_66321"/></filter><filter id="b" x="31.559" y="5.69" width="373.976" height="376.616" filterUnits="userSpaceOnUse" color-interpolation-filters="sRGB"><feFlood flood-opacity="0" result="BackgroundImageFix"/><feColorMatrix in="SourceAlpha" values="0 0 0 0 0 0 0 0 0 0 0 0 0 0 0 0 0 0 127 0" result="hardAlpha"/><feOffset dx="1" dy="1"/><feGaussianBlur stdDeviation="5"/><feComposite in2="hardAlpha" operator="out"/><feColorMatrix values="0 0 0 0 1 0 0 0 0 1 0 0 0 0 1 0 0 0 0.1 0"/><feBlend in2="BackgroundImageFix" result="effect1_dropShadow_273_66321"/><feBlend in="SourceGraphic" in2="effect1_dropShadow_273_66321" result="shape"/></filter><filter id="d" x=".977" y=".686" width="398.628" height="394.321" filterUnits="userSpaceOnUse" color-interpolation-filters="sRGB"><feFlood flood-opacity="0" result="BackgroundImageFix"/><feBlend in="SourceGraphic" in2="BackgroundImageFix" result="shape"/><feGaussianBlur stdDeviation="11.541" result="effect1_foregroundBlur_273_66321"/></filter><linearGradient id="c" x1="-11.5" y1="-.501" x2="377.993" y2="371.006" gradientUnits="userSpaceOnUse"><stop stop-color="#1BA4D8"/><stop offset=".526" stop-color="#1BA4D8"/><stop offset=".966" stop-color="#26255F"/></linearGradient><linearGradient id="e" x1="-43" y1="-12.001" x2="419" y2="471.499" gradientUnits="userSpaceOnUse"><stop stop-color="#1BA4D8"/><stop offset=".903" stop-color="#2B2866"/></linearGradient></defs></svg>
